X:933
T:Anglaise from Pomerania
C:anon.
O:Germany
Z:Transcribed by Frank Nordberg - http://www.musicaviva.com
F:http://abc.musicaviva.com/tunes/germany/anglaise-pommern.abc
M:3/8
L:1/8
K:G
d|"G"g2d|"G"b2g|"G"d'2b|"G"g2d|"G"ggg|"D7"a2c'/a/|"D7"(g/f/e/d/e/f/)|"G"g2:|
|:g|"D7"fad|"G"gbd|"D7"ac'a|"G"(c'/b/a/g/f/g/)|"D7"fad|"G"gbd|"D7"(a/c'/b/a/g/f/)|"G"g2:|
W:
W:
W:  From Musica Viva - http://www.musicaviva.com
W:  the Internet center for free sheet music downloads.
